_svg/icon-info-o.svg

<?xml version="1.0" encoding="UTF-8" standalone="no"?>
<svg
   width="20"
   height="20"
   viewBox="0 0 20 20"
   fill="none"
   version="1.1"
   id="svg6"
   sodipodi:docname="icon-info-o.svg"
   inkscape:version="1.2.1 (9c6d41e410, 2022-07-14)"
   xmlns:inkscape="http://www.inkscape.org/namespaces/inkscape"
   xmlns:sodipodi="http://sodipodi.sourceforge.net/DTD/sodipodi-0.dtd"
   xmlns="http://www.w3.org/2000/svg"
   xmlns:svg="http://www.w3.org/2000/svg">
  <defs
     id="defs10" />
  <sodipodi:namedview
     id="namedview8"
     pagecolor="#ffffff"
     bordercolor="#000000"
     borderopacity="0.25"
     inkscape:showpageshadow="2"
     inkscape:pageopacity="0.0"
     inkscape:pagecheckerboard="0"
     inkscape:deskcolor="#d1d1d1"
     showgrid="false"
     inkscape:zoom="51.35"
     inkscape:cx="9.9902629"
     inkscape:cy="9.9902629"
     inkscape:window-width="2560"
     inkscape:window-height="1377"
     inkscape:window-x="-8"
     inkscape:window-y="-8"
     inkscape:window-maximized="1"
     inkscape:current-layer="svg6" />
  <path
     fill-rule="evenodd"
     clip-rule="evenodd"
     d="M 10,14.85 C 9.5858,14.85 9.25,14.51421 9.25,14.1 V 7.725 c 0,-0.4142 0.3358,-0.75 0.75,-0.75 0.41421,0 0.75,0.3358 0.75,0.75 V 14.1 c 0,0.41421 -0.33579,0.75 -0.75,0.75 z m 0,-9 C 9.5858,5.85 9.25,5.5142 9.25,5.1 V 5 c 0,-0.4142 0.3358,-0.75 0.75,-0.75 0.41421,0 0.75,0.3358 0.75,0.75 v 0.1 c 0,0.4142 -0.33579,0.75 -0.75,0.75 z"
     fill="#97a0a7"
     id="path2" />
  <path
     fill-rule="evenodd"
     clip-rule="evenodd"
     d="m 10,18 c 4.4183,0 8,-3.5817 8,-8 0,-4.41828 -3.5817,-8 -8,-8 -4.41828,0 -8,3.58172 -8,8 0,4.4183 3.58172,8 8,8 z m 0,1 c 4.9706,0 9,-4.0294 9,-9 0,-4.97056 -4.0294,-9 -9,-9 -4.97056,0 -9,4.02944 -9,9 0,4.9706 4.02944,9 9,9 z"
     fill="#97a0a7"
     id="path4" />
</svg>

<svg width="20" height="20" viewBox="0 0 20 20" fill="none" xmlns="http://www.w3.org/2000/svg">
<path fill-rule="evenodd" clip-rule="evenodd" d="M10 4.25C10.4142 4.25 10.75 4.58579 10.75 5V11.375C10.75 11.7892 10.4142 12.125 10 12.125C9.58579 12.125 9.25 11.7892 9.25 11.375V5C9.25 4.58579 9.58579 4.25 10 4.25ZM10 13.25C10.4142 13.25 10.75 13.5858 10.75 14V14.1C10.75 14.5142 10.4142 14.85 10 14.85C9.58579 14.85 9.25 14.5142 9.25 14.1V14C9.25 13.5858 9.58579 13.25 10 13.25Z" fill="#97A0A7"/>
<path fill-rule="evenodd" clip-rule="evenodd" d="M10 18C14.4183 18 18 14.4183 18 10C18 5.58172 14.4183 2 10 2C5.58172 2 2 5.58172 2 10C2 14.4183 5.58172 18 10 18ZM10 19C14.9706 19 19 14.9706 19 10C19 5.02944 14.9706 1 10 1C5.02944 1 1 5.02944 1 10C1 14.9706 5.02944 19 10 19Z" fill="#97A0A7"/>
</svg>
